X: 35999
T: Sauna, The
R: reel
M: 4/4
K: Adorian
|:~e2ed cdBc|A2ed eAAG|EAAE GABc|BGGA BGBd|
~e2ed cdBc|A2ed eAAB|cAAc dBBd|1 edBc A4:|2 edBc A2AB||
|:~c3d edce|~d2gd adgd|~e2ed eAAc|BGdG BGAB|
~c3d edce|~d2gd adeg|~a2ag aeed|1 cdBc A2AB:|2 cdBc A4||

